X: 16449
T: Hag At The Spinning Wheel, The
R: jig
M: 6/8
K: Gmajor
D|:G3 B2G|BcA B2D|Gc/A/G cAG|F3 AFD|
Gc/A/G B2G|BcA B2c|df/g/d cAF|1 AGF G2D:|2 AGF G2c||
|:BAG AFD|D3 AFD|D3 AFD|EFG ABc|
BAG AFD|D3 AFD|df/g/d cAF|1 AGF G2c:|2 AGF G2D||
|:GB/c/d gba|gdB ecA|dBG cAG|F2G AFD|
GB/c/d gba|gdB ecA|fed cAF|1 AGF G2D:|2 AGF G2A||
|:c/B/AG Afd|Bfd Afd|Bfd AFD|EFG ABc|
BAG AFD|D3 AFD|df/g/d cAF|1 AGF G2A:|2 AGF G2D||

